X: 1
T: The Night In Newtown
R: reel
M: 4/4
L: 1/8
K: Edor
|:BE (3E^DE B,EGB|AD (3D^CD A,DFA|BE (3E^DE BABd|egfe dBAd|
BE (3E^DE B,EGB|AD (3D^CD A,DFA|BE (3E^DE BABd|1 egfe dBA2:|2 egfe dBAB||
|:e2ge bege|d2 (3fed ad (3fed|e2ge bege|defa geef|
gfga bgaf|gfed edBd|(3efg fe dfe^c|dBAF GEE2:|

composer: Sean Ryan
